X:1
T:Behold and have regard (Ps 134)
T:John Dowland
T:Source : The Whole Book of Psalms---London---Musical Antiquarian Society---1844. First publication : London---Th.Est(e)---1592. Editor : André Vierendeels (09/09/16).
T:Notes : Original clefs : C1, C3, C4, F4 Original note values have been halved
T:Behold and have regard (Ps 134)
T:©
C:John Dowland
Z:©
%%score [ 1 [ 2 3 ] 4 ]
L:1/8
Q:1/4=120
M:4/4
K:F
V:1 treble nm="Soprano" snm="S"
V:2 treble-8 nm="Tenor 1" snm="T 1"
V:3 treble-8 nm="Tenor 2" snm="T 2"
V:4 bass nm="Bass" snm="B"
V:1
 E4 D2 F2 | F2 E2 F4 || A4 B2 c2 | d2 cB A4 || A4 G2 B2 | A2 AG F2 E2 |[M:2/4] F4 || %7
w: Be- hold and|have re- gard,|ye ser- vants|of the _ Lord,|which in his|house by _ night to|watch,|
[M:4/4] F4 E2 D2 | D2 ^C2 !fermata!D4 |] %9
w: praise him with|one ac- cord.|
V:2
 c4 B2 c2 | c2 c2 c4 || f4 d2 f2 | f2 e2 f4 || c4 c2 de | f2 c2 d2 B2 |[M:2/4] c4 || %7
w: Be- hold and|have re- gard,|ye ser- vants|of the Lord,|which in his _|house by night to|watch,|
[M:4/4] c4 c2 A2 | G2 A2 !fermata!^F4 |] %9
w: praise him with|one ac- cord.|
V:3
 C4 F2 A2 | G2 G2 A4 || c4 B2 A2 | G2 G2 F4 || F4 E2 D2 | C2 F2 F2 G2 |[M:2/4] A4 || %7
w: Be- hold and|have re- gard,|ye ser- vants|of the Lord,|which in his|house by night to|watch,|
[M:4/4] A4 G2 F2 | D2 E2 !fermata!D4 |] %9
w: praise him with|one ac- cord.|
V:4
 A,,4 B,,2 F,,2 | C,2 C,2 F,,4 || F,,4 G,,2 A,,2 | B,,2 C,2 F,,4 || F,,4 C,2 G,,2 | %5
w: Be- hold and|have re- gard,|ye ser- vants|of the Lord,|which in his|
 A,,2 F,,2 B,,2 G,,2 |[M:2/4] F,,4 ||[M:4/4] F,,4 C,2 D,2 | B,,2 A,,2 !fermata!D,4 |] %9
w: house by night to|watch,|praise him with|one ac- cord.|

